X:95
T:42nd and Lakes of Sligo
M:2/4
Q:1/4=100
L:1/8
K:G
%%MIDI channel 1
%%MIDI program 72
%%MIDI transpose 8
%%MIDI grace 1/8
%%MIDI ratio 3 1
G2 G>A|(3(B/c/B/)A Bd|G2 G>e|DB A2|G2 G>A|(3(B/c/B/)A Bd|eg dB|(AB/A/) Gz::
Bd de/f/|gd ed|Bd de/f/|gB A2|Bd de/f/|gd ed|de/f/ gd|(Bc/B/) "fine"Az:|
K:D
A/G/|FA AB/c/|d>e d>c|BG Bd|e>d ef|FA AB/c/|d>e f>e|dB Af|e2 d::
e|fa de|fa ag/f/|gb ef|gb ba/g/|fa eg|d>e f>e|dB Af|"D.C. al fine"e2 d:|

